icons/mobile/24/svg/cricket-24.svg

<svg width="24" height="24" viewBox="0 0 24 24" fill="none" xmlns="http://www.w3.org/2000/svg">
<path fill-rule="evenodd" clip-rule="evenodd" d="M6.82903 3C7.35102 3.00001 7.8734 3.19866 8.27239 3.59766L17.1865 12.5117C17.9834 13.3087 17.9834 14.6024 17.1865 15.3994L16.412 16.1729L21.9999 21.7617L20.7617 23L15.1738 17.4111L14.3984 18.1865C14.0004 18.5855 13.477 18.7852 12.955 18.7852C12.433 18.7852 11.9107 18.5855 11.5117 18.1865L2.59759 9.27344C1.80062 8.47646 1.80067 7.18275 2.59759 6.38574L5.38568 3.59766C5.78367 3.19866 6.30704 3 6.82903 3ZM6.82903 4.78613C6.78104 4.78613 6.71135 4.79934 6.64935 4.86133L3.86126 7.64941C3.79933 7.7104 3.78607 7.78112 3.78607 7.8291C3.78608 7.8771 3.79931 7.94683 3.86126 8.00879L12.7753 16.9229C12.8363 16.9848 12.907 16.998 12.955 16.998C13.003 16.998 13.0727 16.9848 13.1347 16.9229L15.9228 14.1348C15.9847 14.0738 15.998 14.0031 15.998 13.9551C15.998 13.9071 15.9847 13.8374 15.9228 13.7754L7.00872 4.86133C6.94774 4.79934 6.87703 4.78614 6.82903 4.78613Z" fill="black"/>
<path fill-rule="evenodd" clip-rule="evenodd" d="M18.4999 2C20.4329 2 21.9999 3.567 21.9999 5.5C21.9999 7.433 20.4329 9 18.4999 9C16.567 8.99996 14.9999 7.43297 14.9999 5.5C14.9999 3.56703 16.567 2.00004 18.4999 2ZM18.4999 3.75C17.5335 3.75004 16.7499 4.53353 16.7499 5.5C16.7499 6.46647 17.5335 7.24996 18.4999 7.25C19.4664 7.25 20.2499 6.4665 20.2499 5.5C20.2499 4.5335 19.4664 3.75 18.4999 3.75Z" fill="black"/>
</svg>

<!-- This Source Code Form is subject to the terms of the Mozilla Public
   - License, v. 2.0. If a copy of the MPL was not distributed with this
   - file, You can obtain one at http://mozilla.org/MPL/2.0/. -->
<svg xmlns="http://www.w3.org/2000/svg" width="24" height="24" fill="none" viewBox="0 0 24 24">
    <path fill="#000" fill-rule="evenodd" d="M6.829 3c.522 0 1.044.199 1.443.598l8.914 8.914c.797.797.797 2.09 0 2.887l-.774.774L22 21.762 20.762 23l-5.588-5.589-.776.775a2.035 2.035 0 0 1-2.887 0L2.599 9.273a2.043 2.043 0 0 1 0-2.887l2.788-2.788A2.03 2.03 0 0 1 6.829 3m0 1.786a.25.25 0 0 0-.18.075L3.861 7.65a.25.25 0 0 0-.075.18.25.25 0 0 0 .075.18l8.914 8.914a.25.25 0 0 0 .18.075.25.25 0 0 0 .18-.075l2.788-2.788a.25.25 0 0 0 .075-.18.25.25 0 0 0-.075-.18L7.009 4.861a.25.25 0 0 0-.18-.075M18.5 2a3.5 3.5 0 1 1 0 7 3.5 3.5 0 0 1 0-7m0 1.75a1.75 1.75 0 1 0 0 3.5 1.75 1.75 0 0 0 0-3.5" clip-rule="evenodd" />
</svg>
